X:236
T: Frailach
O:klezmer
B: Kammen 1#12
M: 2/4
L: 1/8
K: Dm
|: "Dm"d4- | "Gm"dg "A7"fe | "Dm"f4- | ff ed \
| "D7"d4- | db ag | "Gm"g4- | "C7"gg fe |
| "F"f3 a | "C7"c'b ag | "A7"fg fe | "Dm"de "A7"fg \
| "Dm"~af "A7"~ge | "Dm"~fd "A7"~e^c |1 "Dm"d3 f | "A7"(3agf (3fed :|2 "Dm"d4- | "fine"d ||
A=B^c \
|: "Dm"dz Az | fz "A7"Az | "Dm"d4- | dd ef \
| "Gm"gf ed | ^cd cB | "A"A4- | A3z |
| "A"A^c cc | ^cB/c/ BA | "Dm"Ad dd | d3z \
| "Gm"gf ed | "A7"^cd ef |1 "Dm"d4- | dA =B^c :|2 "Dm"d4- | dz ||
"C7"c2 \
|: "F"fa aa | ag/a/ gf | fa aa | ag/a/ gf \
| az "(C7)"bz | "F"c'b ab | "C7"g4 | (3bag (3gfe |
| "C7"eg gg | gf/g/ fe | eg gg | gf/g/ fe \
| g2 a2 | gf eg |1 "F"ff' e'd' | "C7"c'b ag :|2 "F"f4 | "A7"(3agf "d.C."(3gfe |]





